www/assets/icons/wrap_text.svg

<svg width="24" height="24" viewBox="0 0 24 24" xmlns="http://www.w3.org/2000/svg" fill='currentColor'><path d="M3.5 18H9.5V16H3.5V18ZM19.5 4H3.5V6H19.5V4ZM16.5 10H3.5V12H16.75C17.85 12 18.75 12.9 18.75 14C18.75 15.1 17.85 16 16.75 16H14.5V14L11.5 17L14.5 20V18H16.5C18.71 18 20.5 16.21 20.5 14C20.5 11.79 18.71 10 16.5 10Z"/></svg>

<svg xmlns="http://www.w3.org/2000/svg" width="24" height="24" viewBox="0 0 24 24" fill='currentColor'><path d="M3.5 18h6v-2h-6zm16-14h-16v2h16zm-3 6h-13v2h13.25c1.1 0 2 .9 2 2s-.9 2-2 2H14.5v-2l-3 3 3 3v-2h2c2.21 0 4-1.79 4-4s-1.79-4-4-4"/></svg>
